components/ui-node-icon/src/postgresOutput/postgresOutput.medium.svg

<svg width="24" height="24" viewBox="0 0 24 24" fill="none" xmlns="http://www.w3.org/2000/svg">
  <path fill-rule="evenodd" clip-rule="evenodd" d="M16.3337 1C15.4789 1.00636 14.629 1.13067 13.8082 1.36942L13.7505 1.38775C13.2327 1.29626 12.7086 1.24568 12.1829 1.2365C11.1031 1.21817 10.1754 1.48034 9.42742 1.91667C8.69042 1.66092 7.1614 1.22 5.54989 1.308C4.42788 1.36942 3.2032 1.71042 2.29569 2.66835C1.39094 3.62627 0.912431 5.10854 1.01327 7.12522C1.04077 7.68164 1.19935 8.58915 1.46244 9.76433C1.72552 10.9395 2.09494 12.3154 2.55603 13.5704C3.01712 14.8262 3.5222 15.9537 4.31146 16.7201C4.70563 17.1041 5.2483 17.4268 5.88814 17.4002C6.33731 17.3819 6.7434 17.1848 7.09357 16.8942C7.26193 17.116 7.44191 17.2144 7.60615 17.3042L7.61241 17.3076C7.82141 17.4222 8.02491 17.5001 8.23575 17.5515C8.61433 17.6459 9.26242 17.7724 10.0214 17.6432C10.2799 17.6001 10.5522 17.5157 10.8235 17.3956C10.8329 17.6782 10.844 17.9551 10.8551 18.2347L10.8574 18.294L10.8618 18.4062C10.8973 19.3128 10.9301 20.1513 11.2039 20.89C11.2108 20.9087 11.2193 20.9389 11.2306 20.9787L11.2307 20.9788C11.2953 21.2065 11.449 21.7478 11.8704 22.2339C12.3654 22.8059 13.3352 23.1625 14.4398 22.9259C14.9995 22.8061 15.6684 22.6172 16.2448 22.1731C17.0348 22.6957 17.9819 23 19 23C21.7614 23 24 20.7614 24 18C24 16.4979 23.3376 15.1504 22.2889 14.2339C22.2219 14.0215 22.0967 13.8081 21.9318 13.6831C21.5586 13.3996 21.2803 13.3839 21.024 13.4266C20.6671 13.2684 20.2882 13.1508 19.8932 13.0795C20.7874 11.4619 21.4385 9.78246 21.8273 8.2784C22.084 7.28839 22.2279 6.37538 22.2398 5.57696C22.2517 4.77853 22.1866 4.07178 21.7081 3.46036C20.213 1.55 18.1111 1.022 16.4849 1.00367C16.4345 1.00275 16.3841 1.00183 16.3337 1.00275V1ZM19.1912 13.0036C20.1334 11.3552 20.8175 9.6188 21.2122 8.0914C21.4588 7.13531 21.5935 6.26263 21.6055 5.53387C21.6165 4.8042 21.522 4.21203 21.2049 3.80686C19.7941 2.00376 17.8288 1.57201 16.2906 1.58667L16.2897 1.58851C15.6504 1.5962 15.0138 1.67335 14.3912 1.81859C14.1619 1.87125 13.9358 1.93674 13.7138 2.01476L13.6955 2.02301C13.1912 1.89751 12.6741 1.83046 12.1545 1.82317C11.06 1.80484 10.1837 2.09268 9.50351 2.55468C9.15059 2.41718 7.40524 1.77642 5.56731 1.88184C4.54338 1.94051 3.49287 2.24759 2.72653 3.05885C1.96111 3.87011 1.51469 5.1562 1.61094 7.06472C1.63294 7.51389 1.78602 8.44523 2.04544 9.60024C2.30394 10.7553 2.66786 12.111 3.1152 13.3284C3.56345 14.5457 4.07771 15.6228 4.72213 16.2489C5.0448 16.5615 5.4243 16.7732 5.84414 16.7549C6.26398 16.7375 6.66182 16.49 7.02207 16.0591C7.87824 15.0288 8.58042 14.2863 8.71792 14.1415C9.09285 14.3452 9.51055 14.4576 9.9371 14.4696C9.93779 14.4822 9.93871 14.4947 9.93985 14.5072C9.86117 14.6004 9.79377 14.6838 9.7345 14.7572L9.7345 14.7572C9.61423 14.9061 9.52742 15.0135 9.44759 15.0774C9.30734 15.1883 9.07725 15.2809 8.41817 15.4165C8.05608 15.4917 7.81591 15.5742 7.63441 15.7218C7.53588 15.7979 7.46555 15.9047 7.43457 16.0252C7.41014 16.1442 7.42865 16.2679 7.48682 16.3745C7.58582 16.5606 7.73433 16.655 7.89016 16.7384C8.0409 16.8191 8.20099 16.881 8.36683 16.9226C8.70325 17.007 9.26701 17.1124 9.89859 17.0051C10.4299 16.9144 10.9238 16.6725 11.3213 16.3085C11.3115 17.0795 11.3207 17.8507 11.3488 18.6212C11.3699 19.1245 11.401 19.5709 11.4432 19.9358C11.4854 20.3006 11.5294 20.5738 11.6137 20.7846C11.7365 21.0898 11.9409 21.5885 12.3874 21.9644C12.8347 22.3411 13.5286 22.5611 14.4801 22.3567C15.018 22.2412 15.4592 22.0825 15.8139 21.8536C15.6498 21.7178 15.4946 21.5717 15.3491 21.4163C15.0944 21.5551 14.7705 21.6661 14.3509 21.7563C13.5387 21.9304 13.0941 21.7563 12.7843 21.4959C12.4745 21.2347 12.303 20.8506 12.1857 20.5573C12.1499 20.4693 12.094 20.2089 12.0546 19.867C12.0152 19.5242 11.984 19.0897 11.9629 18.5965C11.9202 17.4548 11.9163 16.3119 11.951 15.17C11.9525 15.1303 11.9462 15.0908 11.9327 15.0535C11.9199 14.9628 11.8979 14.8748 11.8676 14.7932C11.7512 14.4815 11.5358 14.2084 11.2223 14.0782C11.1196 14.0342 10.9473 13.9609 10.7273 13.9792C10.6957 13.9821 10.6642 13.9898 10.6327 13.9974L10.609 14.003C10.6929 13.6881 10.7942 13.3781 10.9124 13.0744C10.9594 12.9482 11.0185 12.8159 11.0827 12.6718L11.0827 12.6718C11.4452 11.8596 11.973 10.6768 11.4249 8.1409C11.2901 7.51939 10.9189 7.10964 10.4697 6.93547C10.0205 6.7613 9.52459 6.7943 9.06442 6.89972C8.60425 7.00605 8.17433 7.18939 7.84708 7.37272L7.83516 7.38006C7.87824 6.82639 7.98733 6.01055 8.30541 5.1672C8.57308 4.45678 8.981 3.76286 9.58876 3.25594C10.1782 2.76552 10.9555 2.43826 12.039 2.43551V2.43735H12.1444C14.449 2.47493 15.9404 3.64277 16.8617 4.8207C17.2493 5.31552 17.5701 5.85919 17.8159 6.43772C17.8548 6.53001 17.8757 6.59718 17.8963 6.66343L17.8963 6.66348C17.9043 6.68933 17.9123 6.71504 17.9213 6.74205C16.8342 6.63205 16.11 6.82822 15.6975 7.30122C15.2318 7.83381 15.2584 8.58915 15.4399 9.31882C15.6223 10.0494 15.9734 10.7993 16.2961 11.418C16.4381 11.6901 16.5745 11.9358 16.6883 12.1408L16.6883 12.1409L16.7333 12.2219C16.8167 12.3669 16.8953 12.5146 16.9689 12.6647C17.0619 12.8845 17.1738 13.0955 17.3033 13.2952C17.6025 13.1873 17.915 13.1071 18.2376 13.0578C18.5454 12.4232 18.6039 11.7857 18.5749 11.1989C18.5598 10.8896 18.5244 10.5915 18.4908 10.3077C18.4469 9.93806 18.406 9.59273 18.4163 9.27849C18.4268 8.9413 18.4712 8.64706 18.5153 8.35484L18.5153 8.35482L18.5153 8.3548C18.5714 7.98291 18.627 7.6143 18.6116 7.16464C18.6119 7.16357 18.6129 7.16194 18.6138 7.1602C18.6154 7.15745 18.6171 7.1544 18.6171 7.15272C18.6318 7.0913 18.6299 7.05555 18.6281 7.02072C18.6235 6.95105 18.6107 6.88414 18.5914 6.80439C18.5529 6.6458 18.4851 6.44138 18.3843 6.19938C18.1177 5.56942 17.7688 4.97758 17.3466 4.43936C16.7388 3.66202 15.8762 2.88285 14.7341 2.37685C15.2477 2.26712 15.7709 2.20817 16.2961 2.20084H16.4299V2.19993C17.8251 2.21093 19.4898 2.61151 20.7199 4.18453C20.8767 4.38436 20.9995 4.86287 20.9904 5.52287C20.9794 6.18288 20.8538 7.01614 20.6173 7.93556C20.21 9.5098 19.474 11.3348 18.461 13.0287C18.6381 13.0097 18.8179 13 19 13C19.064 13 19.1278 13.0012 19.1912 13.0036ZM5.94961 2.48318C5.83348 2.4832 5.71735 2.48686 5.60214 2.49326C4.6763 2.54643 3.80087 2.81502 3.17478 3.47869C2.54778 4.14236 2.13528 5.23045 2.22511 7.03172C2.24253 7.37272 2.39103 8.3279 2.64586 9.46274C2.89978 10.5976 3.26004 11.9332 3.69271 13.1129C4.12629 14.2927 4.65155 15.3194 5.15022 15.8052C5.40139 16.0481 5.61956 16.1462 5.81756 16.138C6.01648 16.1288 6.25573 16.0142 6.54815 15.6631C7.08129 15.02 7.63463 14.3939 8.20733 13.7858C7.80097 13.433 7.48998 12.9835 7.30303 12.4789C7.11607 11.9742 7.05917 11.4307 7.13757 10.8983C7.23199 10.2208 7.24482 9.58741 7.23382 9.08691C7.22775 8.81792 7.21444 8.59857 7.20371 8.42195C7.19499 8.27835 7.18799 8.16299 7.18799 8.07215C7.18782 8.06634 7.18782 8.06053 7.18799 8.05473V8.05015L7.18707 8.04465V8.04373C7.18653 6.98845 7.37017 5.94117 7.72974 4.94904C7.98641 4.26703 8.36866 3.57402 8.94159 3.01302C8.37875 2.82785 7.37957 2.54551 6.2979 2.49235C6.1819 2.48639 6.06576 2.48333 5.94961 2.48318ZM5.94961 2.48318C5.9499 2.48318 5.95019 2.48318 5.95048 2.48318H5.94956C5.94958 2.48318 5.94959 2.48318 5.94961 2.48318ZM17.3154 7.32506C16.693 7.33331 16.3437 7.49373 16.1604 7.70364C15.901 8.00156 15.8762 8.52407 16.0376 9.16757C16.198 9.812 16.5298 10.5325 16.8415 11.1311C16.9829 11.4031 17.1205 11.6501 17.2358 11.8572L17.2359 11.8573L17.2705 11.9194L17.3124 11.9943C17.4139 12.1757 17.4896 12.3109 17.5382 12.4282C17.5886 12.551 17.6445 12.6592 17.7013 12.76C17.9424 12.2513 17.9855 11.7517 17.9608 11.231C17.9479 10.9724 17.9161 10.7115 17.8841 10.4486V10.4486C17.8364 10.0563 17.7881 9.65973 17.8013 9.26016C17.8142 8.85246 17.8624 8.51913 17.9075 8.20768L17.9075 8.20765C17.9487 7.92319 17.9872 7.65699 17.9938 7.36906C17.7688 7.33992 17.5422 7.32522 17.3154 7.32506ZM9.76751 7.43047C9.57736 7.43225 9.38799 7.455 9.20284 7.49831C8.83382 7.58797 8.47838 7.72638 8.14591 7.9099C8.03345 7.97022 7.92641 8.04015 7.82599 8.1189L7.80583 8.13723C7.80735 8.17423 7.81048 8.22579 7.81445 8.29114V8.29115C7.82483 8.46218 7.84095 8.7276 7.84891 9.07316C7.85991 9.59566 7.84708 10.2621 7.74624 10.9835C7.52716 12.551 8.66475 13.849 10.0013 13.8509C10.07 13.5672 10.1778 13.28 10.2903 12.9805L10.2903 12.9804L10.3358 12.859C10.4002 12.6857 10.4753 12.5205 10.5523 12.351C10.9209 11.5399 11.3338 10.6313 10.8235 8.27015C10.7227 7.80264 10.5229 7.61381 10.2478 7.50748C10.0937 7.45296 9.93096 7.42687 9.76751 7.43047ZM17.0248 7.61748H17.0707C17.1312 7.61931 17.1871 7.62573 17.2357 7.63764C17.2852 7.64864 17.3273 7.66514 17.3622 7.68806C17.38 7.69913 17.3954 7.71382 17.4072 7.73119C17.4191 7.74856 17.4271 7.76821 17.4309 7.78889L17.43 7.79623C17.4318 7.83974 17.4206 7.88281 17.3979 7.91998C17.3709 7.97029 17.3369 8.01657 17.2971 8.05748C17.2041 8.15988 17.0795 8.22828 16.9432 8.25181C16.8106 8.26785 16.6767 8.23421 16.5674 8.1574C16.5227 8.1273 16.4825 8.09086 16.4482 8.04923C16.4186 8.01652 16.3986 7.97622 16.3905 7.93281C16.3886 7.91166 16.391 7.89035 16.3976 7.87017C16.4042 7.84999 16.4149 7.83138 16.429 7.81548C16.4591 7.7813 16.4955 7.75328 16.5362 7.73298C16.6242 7.68348 16.7434 7.64681 16.8782 7.62664C16.9286 7.61931 16.9781 7.61564 17.0248 7.61473V7.61748ZM9.85643 7.77148C9.90501 7.77148 9.95635 7.77606 10.0086 7.78339C10.1488 7.80264 10.2735 7.84023 10.3688 7.89523C10.4153 7.9195 10.4567 7.95249 10.4908 7.9924C10.5093 8.01357 10.5233 8.03833 10.5318 8.06515C10.5403 8.09196 10.5432 8.12025 10.5403 8.14823C10.5315 8.20094 10.5076 8.24996 10.4715 8.2894C10.434 8.33544 10.3898 8.37561 10.3404 8.40857C10.2212 8.49303 10.0748 8.52996 9.92976 8.51215C9.78157 8.48779 9.64592 8.41415 9.54476 8.30315C9.50172 8.25845 9.4653 8.20783 9.43659 8.15281C9.40638 8.10441 9.39315 8.04732 9.39901 7.99056C9.41276 7.89156 9.49434 7.84023 9.57409 7.81181C9.66493 7.78278 9.76026 7.77036 9.85551 7.77514L9.85643 7.77148ZM10.7997 14.5888H10.7804C10.7319 14.5934 10.6613 14.6099 10.5247 14.7611C10.4006 14.9002 10.3079 15.0191 10.2254 15.1249L10.2254 15.1249C10.0958 15.2911 9.99153 15.4249 9.83076 15.5531C9.56768 15.7621 9.22576 15.874 8.54283 16.0142C8.3265 16.0582 8.20275 16.1068 8.12025 16.1462C8.12856 16.1531 8.13401 16.1584 8.1388 16.163C8.14932 16.1732 8.15669 16.1803 8.18441 16.1948C8.28433 16.2498 8.41267 16.2984 8.51625 16.325C8.80959 16.3983 9.29176 16.4836 9.79501 16.3983C10.2983 16.3121 10.8217 16.0711 11.2681 15.445C11.3451 15.3368 11.3534 15.1773 11.2901 15.0059C11.2259 14.8345 11.0857 14.6869 10.9867 14.6456C10.9278 14.6172 10.8646 14.5986 10.7997 14.5906V14.5888ZM19 22C21.2091 22 23 20.2091 23 18C23 15.7909 21.2091 14 19 14C16.7909 14 15 15.7909 15 18C15 20.2091 16.7909 22 19 22ZM19 15.5C19.2761 15.5 19.5 15.7239 19.5 16V18.7929L20.6464 17.6464C20.8417 17.4512 21.1583 17.4512 21.3536 17.6464C21.5488 17.8417 21.5488 18.1583 21.3536 18.3536L19.3536 20.3536C19.1583 20.5488 18.8417 20.5488 18.6464 20.3536L16.6464 18.3536C16.4512 18.1583 16.4512 17.8417 16.6464 17.6464C16.8417 17.4512 17.1583 17.4512 17.3536 17.6464L18.5 18.7929V16C18.5 15.7239 18.7239 15.5 19 15.5Z" fill="var(--tbl--colors--brand--postgres)"/>
</svg>

<svg xmlns="http://www.w3.org/2000/svg" width="24" height="24" fill="none" viewBox="0 0 24 24">
  <path fill="var(--tbl--colors--brand--postgres)" fill-rule="evenodd" d="M16.334 1a9.29 9.29 0 0 0-2.526.37l-.057.018a10.014 10.014 0 0 0-1.568-.151c-1.08-.019-2.008.243-2.756.68-.737-.256-2.266-.697-3.877-.609-1.122.061-2.347.402-3.254 1.36-.905.958-1.384 2.44-1.283 4.457.028.557.186 1.464.45 2.64.263 1.175.632 2.55 1.093 3.805.461 1.256.966 2.384 1.755 3.15.395.384.937.707 1.577.68.45-.018.855-.215 1.206-.506.168.222.348.32.512.41l.006.004c.21.114.413.192.624.244.378.094 1.026.22 1.785.091.259-.043.531-.127.802-.247l.032.839.002.059.005.112c.035.907.068 1.745.342 2.484.007.019.015.049.027.089.064.227.218.769.64 1.255.494.572 1.464.928 2.569.692.56-.12 1.228-.309 1.805-.753a5 5 0 0 0 6.044-7.94c-.067-.212-.192-.425-.357-.55-.373-.283-.652-.3-.908-.256a4.966 4.966 0 0 0-1.13-.348 20.988 20.988 0 0 0 1.933-4.8c.257-.99.4-1.904.413-2.702.012-.798-.053-1.505-.532-2.117-1.495-1.91-3.597-2.438-5.223-2.456-.05-.001-.1-.002-.151-.001V1Zm2.857 12.004c.942-1.649 1.627-3.385 2.021-4.913.247-.956.381-1.828.393-2.557.011-.73-.083-1.322-.4-1.727-1.41-1.803-3.376-2.235-4.914-2.22l-.001.002a8.824 8.824 0 0 0-1.899.23c-.23.052-.455.118-.677.196l-.019.008a6.775 6.775 0 0 0-1.54-.2c-1.095-.018-1.971.27-2.651.732-.353-.138-2.099-.779-3.937-.673-1.024.059-2.074.366-2.84 1.177S1.515 5.156 1.61 7.065c.022.449.175 1.38.434 2.535.259 1.155.623 2.511 1.07 3.728.448 1.218.963 2.295 1.607 2.92.323.313.702.525 1.122.507.42-.017.818-.265 1.178-.696a40.226 40.226 0 0 1 1.696-1.918c.375.204.793.317 1.22.329 0 .012 0 .025.002.037-.079.093-.146.177-.205.25-.12.15-.208.257-.287.32-.14.111-.37.204-1.03.34-.362.075-.602.157-.784.305a.56.56 0 0 0-.2.303.513.513 0 0 0 .053.35c.099.186.247.28.403.363.15.081.311.143.477.185.336.084.9.19 1.532.082a2.806 2.806 0 0 0 1.422-.697c-.01.771 0 1.543.028 2.313.02.504.052.95.094 1.315s.086.638.17.849c.123.305.328.803.774 1.18.448.376 1.142.596 2.093.392.538-.116.98-.274 1.334-.503a5.03 5.03 0 0 1-.465-.438c-.255.14-.579.25-.998.34-.812.174-1.257 0-1.567-.26-.31-.261-.481-.645-.598-.939-.036-.088-.092-.348-.131-.69-.04-.343-.071-.777-.092-1.27a50.579 50.579 0 0 1-.012-3.427.308.308 0 0 0-.018-.117 1.254 1.254 0 0 0-.065-.26c-.117-.311-.332-.585-.646-.715a1.003 1.003 0 0 0-.495-.099c-.031.003-.063.01-.094.018l-.024.006c.084-.315.185-.625.303-.929.047-.126.106-.258.17-.402.363-.812.891-1.995.343-4.531-.135-.622-.506-1.031-.955-1.206-.45-.174-.945-.14-1.406-.035-.46.106-.89.29-1.217.473l-.012.007c.043-.554.152-1.37.47-2.213.268-.71.676-1.404 1.284-1.911.59-.49 1.367-.818 2.45-.82v.001h.105c2.305.038 3.796 1.206 4.718 2.384.387.495.708 1.038.954 1.617.039.092.06.16.08.225l.025.079c-1.087-.11-1.811.086-2.223.56-.466.532-.44 1.287-.258 2.017s.533 1.48.856 2.099c.142.272.279.518.392.723l.045.08c.084.146.162.294.236.444.093.22.205.43.334.63.3-.108.612-.188.935-.237.307-.635.366-1.272.337-1.86-.015-.308-.05-.607-.084-.89-.044-.37-.085-.715-.075-1.03.01-.337.055-.63.1-.923.055-.372.111-.74.096-1.19 0-.001 0-.003.002-.005a.021.021 0 0 0 .003-.007c.015-.062.013-.097.011-.132a1.253 1.253 0 0 0-.037-.217 4.218 4.218 0 0 0-.207-.605 7.737 7.737 0 0 0-1.037-1.76 6.869 6.869 0 0 0-2.613-2.062 8.011 8.011 0 0 1 1.562-.176h.134V2.2c1.395.01 3.06.412 4.29 1.985.157.2.28.678.27 1.338-.01.66-.136 1.493-.373 2.413-.407 1.574-1.143 3.399-2.156 5.093a5.051 5.051 0 0 1 .73-.025ZM5.95 2.484a6.29 6.29 0 0 0-.348.01c-.926.052-1.801.321-2.427.985-.627.663-1.04 1.751-.95 3.553.018.34.166 1.296.42 2.43.255 1.136.615 2.471 1.048 3.65.433 1.18.959 2.207 1.457 2.693.251.243.47.341.668.333.198-.01.438-.124.73-.475a39.623 39.623 0 0 1 1.66-1.877 3.206 3.206 0 0 1-1.07-2.888c.094-.677.107-1.31.096-1.811-.006-.27-.02-.488-.03-.665a6.361 6.361 0 0 1-.016-.367v-.011c-.001-1.056.182-2.103.542-3.095.256-.682.639-1.375 1.212-1.936-.563-.185-1.562-.467-2.644-.52a6.963 6.963 0 0 0-.348-.01Zm0 0Zm11.365 4.841c-.622.008-.971.169-1.155.379-.259.298-.284.82-.122 1.464.16.644.492 1.365.803 1.963.142.272.28.52.395.726l.034.062.042.075c.102.182.178.317.226.434.05.123.107.231.163.332.241-.509.284-1.008.26-1.529-.013-.259-.045-.52-.077-.782-.048-.393-.096-.79-.083-1.189.013-.408.061-.74.107-1.052.04-.285.08-.551.086-.839a5.311 5.311 0 0 0-.679-.044Zm-7.547.105c-.19.002-.38.025-.565.068-.37.09-.725.228-1.057.412-.113.06-.22.13-.32.209l-.02.018.008.154c.01.171.027.437.035.782a12.02 12.02 0 0 1-.103 1.91c-.219 1.568.919 2.866 2.255 2.868.069-.284.177-.571.29-.87l.045-.122c.064-.173.14-.338.216-.508.369-.811.782-1.72.271-4.08-.1-.468-.3-.657-.575-.764a1.35 1.35 0 0 0-.48-.077Zm7.257.187h.046c.06.002.116.009.165.02.05.012.091.028.126.051a.15.15 0 0 1 .069.1l-.001.008a.22.22 0 0 1-.032.124.613.613 0 0 1-.1.137.62.62 0 0 1-.355.195.54.54 0 0 1-.376-.095.56.56 0 0 1-.119-.108.239.239 0 0 1-.058-.116.156.156 0 0 1 .039-.118.353.353 0 0 1 .107-.082 1.183 1.183 0 0 1 .489-.118v.002Zm-7.169.154c.049 0 .1.005.153.012.14.02.264.057.36.112a.41.41 0 0 1 .122.097.205.205 0 0 1 .05.156.277.277 0 0 1-.07.141.595.595 0 0 1-.13.12.587.587 0 0 1-.411.103.667.667 0 0 1-.385-.209.65.65 0 0 1-.108-.15.257.257 0 0 1-.038-.162c.014-.1.095-.15.175-.18a.794.794 0 0 1 .282-.036v-.004Zm.944 6.818h-.02c-.048.004-.119.02-.255.172-.124.14-.217.258-.3.364-.13.166-.233.3-.394.428-.263.21-.605.321-1.288.461-.216.044-.34.093-.423.132l.019.017c.01.01.018.017.045.032.1.055.229.103.332.13.294.073.776.159 1.279.073.503-.086 1.027-.327 1.473-.953.077-.108.085-.268.022-.44-.064-.17-.204-.318-.303-.36a.6.6 0 0 0-.187-.054v-.002ZM19 22a4 4 0 1 0 0-8 4 4 0 0 0 0 8Zm0-6.5a.5.5 0 0 1 .5.5v2.793l1.146-1.147a.5.5 0 0 1 .708.708l-2 2a.5.5 0 0 1-.708 0l-2-2a.5.5 0 0 1 .708-.708l1.146 1.147V16a.5.5 0 0 1 .5-.5Z" clip-rule="evenodd"/>
</svg>
